01-landingpage/assets/img/rating.svg

<svg xmlns="http://www.w3.org/2000/svg" viewBox="0 0 815.587 121.269"><path fill="#a4872f" d="M63.755 0l15.051 46.321h48.704L88.107 74.949l15.051 46.32-39.403-28.628-39.403 28.628 15.051-46.32L0 46.321h48.704L63.755 0zM235.774 0l15.051 46.321h48.704l-39.403 28.628 15.051 46.32-39.403-28.628-39.403 28.628 15.051-46.32-39.403-28.628h48.705L235.774 0zM407.793 0l15.051 46.321h48.704l-39.402 28.628 15.05 46.32-39.403-28.628-39.402 28.628 15.05-46.32-39.403-28.628h48.705L407.793 0zM579.813 0l15.05 46.321h48.705l-39.403 28.628 15.05 46.32-39.402-28.628-39.403 28.628 15.05-46.32-39.402-28.628h48.704L579.813 0zM751.832 0l15.05 46.321h48.705l-39.403 28.628 15.051 46.32-39.403-28.628-39.403 28.628 15.051-46.32-39.403-28.628h48.704L751.832 0z"/></svg>

<?xml version="1.0" encoding="UTF-8"?>
<svg width="816px" height="122px" viewBox="0 0 816 122" version="1.1" xmlns="http://www.w3.org/2000/svg" xmlns:xlink="http://www.w3.org/1999/xlink">
    <!-- Generator: Sketch 61.2 (89653) - https://sketch.com -->
    <title>rating</title>
    <desc>Created with Sketch.</desc>
    <g id="Page-1" stroke="none" stroke-width="1" fill="none" fill-rule="evenodd">
        <g id="rating" fill="#A4872F" fill-rule="nonzero">
            <path d="M63.755,0 L78.806,46.321 L127.51,46.321 L88.107,74.949 L103.158,121.269 L63.755,92.641 L24.352,121.269 L39.403,74.949 L0,46.321 L48.704,46.321 L63.755,0 Z M235.774,0 L250.825,46.321 L299.529,46.321 L260.126,74.949 L275.177,121.269 L235.774,92.641 L196.371,121.269 L211.422,74.949 L172.019,46.321 L220.724,46.321 L235.774,0 Z M407.793,0 L422.844,46.321 L471.548,46.321 L432.146,74.949 L447.196,121.269 L407.793,92.641 L368.391,121.269 L383.441,74.949 L344.038,46.321 L392.743,46.321 L407.793,0 Z M579.813,0 L594.863,46.321 L643.568,46.321 L604.165,74.949 L619.215,121.269 L579.813,92.641 L540.41,121.269 L555.46,74.949 L516.058,46.321 L564.762,46.321 L579.813,0 Z M751.832,0 L766.882,46.321 L815.587,46.321 L776.184,74.949 L791.235,121.269 L751.832,92.641 L712.429,121.269 L727.48,74.949 L688.077,46.321 L736.781,46.321 L751.832,0 Z" id="Shape"></path>
        </g>
    </g>
</svg>
